icons/codeberg-light.svg

<svg width="256" height="256" viewBox="0 0 256 256" fill="none" xmlns="http://www.w3.org/2000/svg">
<rect width="256" height="256" rx="60" fill="#F4F2ED"/>
<path opacity="0.3" d="M129.879 78.674C129.752 78.6751 129.626 78.6971 129.512 78.7384C129.397 78.7797 129.297 78.8394 129.216 78.9131C129.135 78.9868 129.077 79.0729 129.046 79.1651C129.014 79.2574 129.008 79.3534 129.032 79.4468L167.555 223.841C186.193 215.815 201.949 202.307 212.727 185.114L130.641 78.9943C130.563 78.8956 130.452 78.8142 130.318 78.758C130.184 78.7017 130.033 78.6727 129.879 78.674Z" fill="#2185D0"/>
<path d="M128 32C72.7705 32 28 76.7706 28 131.998C28 150.785 33.2909 169.192 43.2703 185.11L126.645 77.323C127.244 76.5444 128.752 76.5444 129.35 77.323L212.725 185.114C222.705 169.195 228 150.786 228 131.998C228 76.7706 183.229 32 128 32Z" fill="#2185D0"/>
</svg>

<svg xmlns="http://www.w3.org/2000/svg" width="256" height="256" fill="none"><rect width="256" height="256" fill="#F4F2ED" rx="60"/><path fill="#2185D0" d="M129.879 78.674a1.1 1.1 0 0 0-.367.064.9.9 0 0 0-.296.175.6.6 0 0 0-.17.252.5.5 0 0 0-.014.282l38.523 144.394a100 100 0 0 0 45.172-38.727l-82.086-106.12a.8.8 0 0 0-.323-.236 1.1 1.1 0 0 0-.439-.084" opacity=".3"/><path fill="#2185D0" d="M128 32C72.77 32 28 76.77 28 131.998a100 100 0 0 0 15.27 53.112l83.375-107.787c.599-.779 2.107-.779 2.705 0l83.375 107.791A100 100 0 0 0 228 131.998C228 76.771 183.229 32 128 32"/></svg>
